X: 11323
T: The STANDING TOAST, "the LASS THAT LOVES A SAILOR"
C: Dibdin
Q: "With spirit."
%R: air, reel, march
B: W. Hamilton "Universal Tune-Book" Vol. 1 Glasgow 1844 p.132 #3
S: http://imslp.org/wiki/Hamilton's_Universal_Tune-Book_(Various)
Z: 2016 John Chambers <jc:trillian.mit.edu>
M: C
L: 1/8
K: Bb
% - - - - - - - - - - - - - - - - - - - - - - - - -
F2 |\
B2dd f2dB | e2cB (BA)GF |\
B2BA G2cB | (B2 A2) z2AB |\
c2d=e f2af | d2gf f=edc |\
f2ga (d<f)=ef | f2z2z2  |]
f2 |\
f2ff f2(dB) | e2ee e2(cA) |\
d2(dB) G2cB | HB2 HA2 z2FF |\
G2G2 A2A2 | B2B2 He2FF |\
B2d2 f2B2 | e2g2 Hb2ag |\
(gf)(ed) (ec)(fe) | d2B2z2 |]
% - - - - - - - - - - - - - - - - - - - - - - - - -

%%sep 1 1 500
%%sep 1 1 500

